icons/play-17.svg

<svg width="16" height="17" viewBox="0 0 16 17" fill="none" xmlns="http://www.w3.org/2000/svg">
<path fill-rule="evenodd" clip-rule="evenodd" d="M3.125 8.16638C3.125 5.47399 5.30761 3.29138 8 3.29138C10.6924 3.29138 12.875 5.47399 12.875 8.16638C12.875 10.8588 10.6924 13.0414 8 13.0414C5.30761 13.0414 3.125 10.8588 3.125 8.16638ZM8 2.16638C4.68629 2.16638 2 4.85267 2 8.16638C2 11.4801 4.68629 14.1664 8 14.1664C11.3137 14.1664 14 11.4801 14 8.16638C14 4.85267 11.3137 2.16638 8 2.16638ZM6.78397 6.08676C6.65899 6.01178 6.5 6.1018 6.5 6.24754V10.0853C6.5 10.231 6.65899 10.321 6.78397 10.246L9.98203 8.32716C10.1034 8.25433 10.1034 8.07843 9.98203 8.0056L6.78397 6.08676Z" fill="#272431"/>
</svg>

<svg xmlns="http://www.w3.org/2000/svg" width="16" height="17" viewBox="0 0 16 17"><path fill-rule="evenodd" d="M3.125 8.166a4.875 4.875 0 119.75 0 4.875 4.875 0 01-9.75 0zm4.875-6a6 6 0 100 12 6 6 0 000-12zm-1.216 3.92a.188.188 0 00-.284.162v3.837c0 .146.159.236.284.161l3.198-1.919a.188.188 0 000-.321l-3.198-1.92z"/></svg>
